X:1
T:Title
%%score ( 1 2 ) 3
L:1/8
Q:1/4=103
M:4/4
K:C
V:1 treble nm="Grand Piano, Soprano"
V:2 treble 
V:3 bass nm="Choir Pad, Sivas, J. G. Wuthrie, 1898"
V:1
 [CE]>[DF] [EG]2 [EG]2 [FA]2 | [EG]2 [Ge]2 [Ec]4 | [EG]>[EG] [FA]2 [FA]2 [Ac]2 | [GB][FA] [EG]6 | %4
w: By~James~W.~Guthrie,~1898 * * * *||||
 [CE]>[DF] [EG]2 [EG]2 [FA]2 | [EG]2 [Ge]2 [Ec]4 | [DB]>[Ec] [Fd]2 [Ge]2 [FA]2 | [FB]2 [Ec]6 | %8
w: ||||
 [DB]>[Ec] [Fd]2 [Fd]2 [Ge]2 | AB [Ec]2 [EG]4 | [EG]>[EG] [FA]2 [FA]2 [Ac]2 | [GB][FA] [EG]6 | %12
w: ||||
 [CE]>[DF] [EG]2 [EG]2 [FA]2 | [EG]2 [Ge]2 [Ec]4 | [DB]>[Ec] [Fd]2 [Ge]2 [FA]2 | [FB]2 [Ec]6- | %16
w: ||||
 [Ec]2 z2 z4 |] %17
w: |
V:2
 x8 | x8 | x8 | x8 | x8 | x8 | x8 | x8 | x8 | F2 z2 z4 | x8 | x8 | x8 | x8 | x8 | x8 | x8 |] %17
V:3
 [C,G,]>[C,G,] [C,C]2 [C,C]2 [C,C]2 | [C,C]2 [C,C]2 [C,G,]4 | [C,C]>[C,C] [F,C]2 [F,C]2 [F,C]2 | %3
 [F,C]2 [C,C]6 | [C,G,]>[C,G,] [C,C]2 [C,C]2 [C,C]2 | [C,C]2 [C,C]2 [C,G,]4 | %6
 G,>G, [G,B,]2 [G,B,]2 [G,C]2 | [G,D]2 [C,C]6 | G,>G, [G,B,]2 [G,B,]2 [G,B,]2 | %9
 [G,D]2 [C,C]2 [C,C]4 | [C,C]>[C,C] [F,C]2 [F,C]2 [F,C]2 | [F,C]2 [C,C]6 | %12
 [C,G,]>[C,G,] [C,C]2 [C,C]2 [C,C]2 | [C,C]2 [C,C]2 [C,G,]4 | G,>G, [G,B,]2 [G,B,]2 [G,C]2 | %15
 G,2 [C,G,]6- | [C,G,]2 z2 z4 |] %17

